X:1
T:[ID 2-52b]
T:[ID 2-52b]
T:Bezeichnung standardisiert: Menuett Menuet 12
T:Urheber unbekannt Datum in der hier transkribierten schriftlichen Quelle: 1767
C:Urheber unbekannt
C:Datum in der hier transkribierten schriftlichen Quelle: 1767
L:1/8
M:3/4
K:D
V:1 bass 
V:1
 D,2 D2 C2 | F,2 E,2 D,2 | F,2 D,2 G,2 | F,2 E,2 D,2 | G,2 G,,2 G,2 | F,2 F,,2 F,2 | %6
 C,2 A,,2 B,,2 | A,2 E,2 A,,2 :: A,,2 A,2 ^G,2 | C,2 B,,2 A,,2 | C,2 A,,2 E,2 | A,,C,E,A, A,,2 | %12
 G,,2 G,2 G,,2 | F,,2 F,2 F,,2 | G,2 A,2 A,,2 | D,2 A,,2 D,,2 :| %16

